X:1
T:Title
%%score ( 1 2 ) { 3 | 4 }
L:1/8
M:3/4
K:C
V:1 treble nm="Grand Piano, Staff 1"
V:2 treble 
V:3 bass nm="Choir Pad, Staff 2"
V:4 bass 
V:1
 [EG]2 [EG]2 [CE]2 | [DF]2 [EG]4 | [Ec]2 [Fd]2 [Ec]2 | [DB]2 [Ec]4 | z2 A2 z2 | z2 G4 | z2 G2 z2 | %7
w: By~Adapted~from~Dmitri~S.~Bortniansky~~(1751\-1825) * *|||||||
 [CE]2 [B,D]4 | [DG]2 [Fd]4 | [FB]2 [Ec]4 | [DG]2 [Ee]2 [Fd]2 | c-[Fc] [Ec]4 | z2 z2 B2 | %13
w: ||||||
 [FA]2 [EG]4 | z2 G2 z2 | [B,D]2 C4- | C4 z2 |] %17
w: ||||
V:2
 x6 | x6 | x6 | x6 | [EG]2 F2- [Fc]2 | [CA]2 C2 B,2 | [CE]2 D2- [DF]2 | x6 | x6 | x6 | x6 | %11
 .G2 z2 z2 | [DB]2 [Cc]2 DE | x6 | [CE]2 C2- [CF]2 | x6 | x6 |] %17
V:3
 C2 C2 G,2 | A,B, C4 | G,2 B,2[K:treble] C2 | D2 C4 | C2 C2[K:bass] A,2 | F,2 G,4 | G,2 G,4 | %7
 G,2 G,4 | B,2 B,4 | D2 C4 | D2 G,2 B,2 | C[K:bass]A, G,4- | G,2 E,2 F,G, | A,B, C4 | _B,2 A,4 | %15
 G,F, E,4- | E,4 z2 |] %17
V:4
 C,2 C,4 | C,2 C,4 | C,2 G,,4 | G,,2 C,4 | C,2 F,4 | z2 E,2 D,2 | C,2 B,,4 | C,2 G,,4 | G,2 G,4 | %9
 G,2 C,4 | B,,2 C,2 D,2 | E,F, z2 z2 | z2 C,2 C,2 | C,2 C,4 | C,2 F,,4 | G,,2 C,4- | C,4 z2 |] %17

